icons/shield-outline.svg

<svg xmlns="http://www.w3.org/2000/svg" width="24" height="24" viewBox="0 0 24 24">
  <path d="M12,1 C8.48300939,1 5.62575334,1.71431401 3.4452998,3.16794971 C3.16710114,3.35341548 3,3.66564681 3,4 L3,12.9090909 C3.00183418,16.3441397 4.95028406,19.5919666 7.97250014,21.104284 L11.5527864,22.8944272 C11.8343139,23.0351909 12.1656861,23.0351909 12.4472136,22.8944272 L16.0272136,21.1044272 C19.0497159,19.5919666 20.9981658,16.3441397 21,12.9096249 L21,4 C21,3.66564681 20.8328989,3.35341548 20.5547002,3.16794971 C18.3742467,1.71431401 15.5169906,1 12,1 Z M12.4453733,3.00420832 C15.0901411,3.0546919 17.2406172,3.55909028 18.9075499,4.5016552 L18.9999999,4.556 L18.9999999,12.9090909 L18.9947875,13.1773026 C18.8956579,15.7647258 17.3905248,18.1858001 15.1325001,19.315716 L11.9999999,20.881 L8.8672136,19.3155728 L8.636365,19.1941391 C6.43129904,17.976644 5.00138724,15.5066311 4.99999986,12.9085569 L4.99999986,4.555 L5.09245014,4.5016552 C6.85199016,3.50672557 9.15029309,3 11.9999999,3 L12.4453733,3.00420832 Z"/>
</svg>

<svg xmlns="http://www.w3.org/2000/svg" viewBox="0 0 24 24">
  <path d="M12 1c-3.52 0-6.37.71-8.55 2.17A1 1 0 0 0 3 4v8.9a9.23 9.23 0 0 0 4.97 8.2l3.58 1.8a1 1 0 0 0 .9 0l3.58-1.8A9.23 9.23 0 0 0 21 12.91V4a1 1 0 0 0-.45-.83C18.37 1.7 15.52 1 12 1zm.45 2c2.64.05 4.8.56 6.46 1.5l.09.06v8.62c-.1 2.58-1.6 5-3.87 6.14L12 20.88l-3.13-1.56-.23-.13A7.25 7.25 0 0 1 5 12.91V4.55l.1-.05C6.84 3.5 9.14 3 12 3h.45z"/>
</svg>
